**kern	**kern	**kern	**kern
*staff4	*staff3	*staff2	*staff1
=1-	=1-	=1-	=1-
*clefF4	*clefGv2	*clefGv2	*clefG2
*k[b-]	*k[b-]	*k[b-]	*k[b-]
*met(C|)	*met(C|)	*met(C|)	*met(C|)
*M2/2	*M2/2	*M2/2	*M2/2
0r	1F	1.c	1r
.	[1A	.	1f
.	.	2d\	.
=2	=2	=2	=2
0r	1A]	1e	0a
.	1F	1f	.
=3	=3	=3	=3
0r	1B-	1.d	1f
.	1G	.	1b-
.	.	2c\	.
=4	=4	=4	=4
0r	1G	1B-	1g
.	[1A	1c	[1cc
=5	=5	=5	=5
1.F	2A/]	1.A	2cc\]
.	2G/	.	2b-\
.	1F	.	1a
2F\	.	2B-\	.
=6	=6	=6	=6
0C	0E	0c	0g
=7	=7	=7	=7
1.D	1F	1A	1r
.	[1A	1d	1f
2D\	.	.	.
=8	=8	=8	=8
!!linebreak:default
1AA	1A]	1c	0a
1D	1F	1A	.
=9	=9	=9	=9
1r	1B-	1d	1f
1E-	1G	1B-	1b-
=10	=10	=10	=10
1E-	1G	0c	1g
2.F\	[1A	.	[1cc
4E-\	.	.	.
=11	=11	=11	=11
2C/	2A/]	1r	2cc\]
1F	4G/	.	4b-\
.	4F/	.	4a/
.	1G	1G	1b-
2E\	.	.	.
=12	=12	=12	=12
2F\	0F	1A	1.a
2.c\	.	.	.
.	.	1F	.
4B-\	.	.	.
[2A\	.	.	[2cc\
=13	=13	=13	=13
4A\]	0r	1c	4cc\]
4G\	.	.	4b-\
2F\	.	.	2a/
2E\	.	2r	2g/
[2F\	.	2c\	[2a/
=14	=14	=14	=14
2F\]	0r	2A/	2a/]
4E\	.	2B-\	4g/
4D\	.	.	4f/
1C	.	1c	2a/
.	.	.	[2g/
=15	=15	=15	=15
!!linebreak:default
1D	0r	1F	4g/]
.	.	.	4f/
.	.	.	1f
1C	.	1G	.
.	.	.	2e/
=16	=16	=16	=16
2FF/	0r	0F	0f
1BB-	.	.	.
4AA/	.	.	.
4GG/	.	.	.
=17	=17	=17	=17
0FF	1F	1r	1a
.	[1c	1F	1a
=18	=18	=18	=18
1C	1c]	1G	1.g
[1G	1e-	1C	.
.	.	.	2a/
=19	=19	=19	=19
1G]	0d	1r	1b-
1B-	.	1G	1b-
=20	=20	=20	=20
0A	1c	1A	1cc
.	1A	1F	1cc
=21	=21	=21	=21
1G	1B-	2.G/	1b-
.	.	4A/	.
1E-	1G	2B-\	1b-
.	.	2c\	.
=22	=22	=22	=22
!!pagebreak:default
1F	0F	2d\	2a/
.	.	1c	1a
1D	.	.	.
.	.	2Bn\	4g/
.	.	.	4f/
=23	=23	=23	=23
0C	0r	2c\	2e/
.	.	2A/	1f
.	.	1G	.
.	.	.	2e/
=24	=24	=24	=24
2FF/	0r	1F	0f
1BB-	.	.	.
.	.	1B-	.
4AA/	.	.	.
4GG/	.	.	.
=25	=25	=25	=25
0FF	1F	1A	1a
.	[1c	1F	1a
=26	=26	=26	=26
1C	1c]	1G	1.g
[1G	1e-	[1B-	.
.	.	.	2a/
=27	=27	=27	=27
1G]	0d	2B-\]	1b-
.	.	2A/	.
1B-	.	1G	1b-
=28	=28	=28	=28
0A	1c	1A	1cc
.	1A	1F	1cc
=29	=29	=29	=29
1G	1B-	1r	1b-
1E	1G	1G	1b-
=30	=30	=30	=30
!!linebreak:default
1F	0F	2A/	2a/
.	.	1c	1a
1D	.	.	.
.	.	2Bn\	4g/
.	.	.	4f/
=31	=31	=31	=31
0C	0r	2c\	2e/
.	.	2A/	1f
.	.	1G	.
.	.	.	2e/
=32	=32	=32	=32
1r	0r	0F	1.f
1FF	.	.	.
.	.	.	4e/
.	.	.	4d/
=33	=33	=33	=33
0AA	0r	1F	0c
.	.	[1A	.
=34	=34	=34	=34
1FF	0r	1A]	1r
1BB-	.	1F	1d
=35	=35	=35	=35
2.GG/	0r	1B-	2.d/
4AA/	.	.	4c/
2BB-/	.	1G	2d/
[2C/	.	.	[2e-/
=36	=36	=36	=36
4C/]	0r	1G	4e-/]
4BB-/	.	.	4d/
4AA/	.	.	4c/
4GG/	.	.	4B-/
2FF/	.	[1A	2c/
[2F\	.	.	[2d/
=37	=37	=37	=37
!!linebreak:default
4F\]	0r	2A/]	2d/]
4E\	.	.	.
4D\	.	2G/	1c
4C/	.	.	.
1D	.	1F	.
.	.	.	2Bn/
=38	=38	=38	=38
2.C/	0r	0E	2c/
.	.	.	4B-/
4BB-/	.	.	4A/
1C	.	.	1G
=39	=39	=39	=39
1FF	1F	1.c	2F/
.	.	.	2r
1r	[1A	.	1f
.	.	2d\	.
=40	=40	=40	=40
0r	1A]	1e	0a
.	1F	1f	.
=41	=41	=41	=41
0r	1B-	1.d	1f
.	1G	.	1b-
.	.	2c\	.
=42	=42	=42	=42
0r	1G	1B-	1g
.	[1A	1c	[1cc
=43	=43	=43	=43
1.F	2A/]	1.A	2cc\]
.	2G/	.	2b-\
.	1F	.	1a
2F\	.	2B-\	.
=44	=44	=44	=44
!!linebreak:default
0C	0E	0c	0g
=45	=45	=45	=45
1.D	1F	1A	1r
.	[1A	1d	1f
2D\	.	.	.
=46	=46	=46	=46
1AA	1A]	1c	0a
1D	1F	1A	.
=47	=47	=47	=47
1r	1B-	1d	1f
1E-	1G	1B-	1b-
=48	=48	=48	=48
1E-	1G	0c	1g
2.F\	[1A	.	[1cc
4E-\	.	.	.
=49	=49	=49	=49
2C/	2A/]	1r	2cc\]
1F	4G/	.	4b-\
.	4F/	.	4a/
.	1G	1G	1b-
2E\	.	.	.
=50	=50	=50	=50
2F\	0F	1A	1.a
2.c\	.	.	.
.	.	1F	.
4B-\	.	.	.
[2A\	.	.	[2cc\
=51	=51	=51	=51
!!pagebreak:default
4A\]	0r	1c	4cc\]
4G\	.	.	4b-\
2F\	.	.	2a/
2E\	.	2r	2g/
[2F\	.	2c\	[2a/
=52	=52	=52	=52
2F\]	1r	2A/	2a/]
4E\	.	2B-\	4g/
4D\	.	.	4f/
1C	2r	1c	2a/
.	2c\	.	[2g/
=53	=53	=53	=53
1D	2A/	1F	4g/]
.	.	.	4f/
.	2B-\	.	1f
1C	1c	1G	.
.	.	.	2e/
=54	=54	=54	=54
2r	[0F	1.A	[0f
2.D\	.	.	.
4C/	.	.	.
2BB-/	.	2B-\	.
=55	=55	=55	=55
2AA/	0F_	2c\	0f_
1BB-	.	1d	.
2AA/	.	[2c\	.
=56	=56	=56	=56
[0FF	0F_	4c\]	0f_
.	.	4B-\	.
.	.	4A/	.
.	.	4B-\	.
.	.	2A/	.
.	.	2F/	.
=57	=57	=57	=57
0FF]	0F]	0c	0f]
==	==	==	==
*-	*-	*-	*-
